X:117
T:Tangnefedd
M:4/2
L:1/2
Q:90
C:Olive V. Davies 1895 - 1971
R:Hymn
K:D
D>D| A A B A/G/| F D F A | d B G G | F2 F A | B>A G E | D C D E | F A B
B | A2 E D | G F G F | B A B c | d F F E| D2 ||
